X: 92
T: No_21_Arrow_Song.krn
%%abc-version 2.0
%%abcx-abcm2ps-target-version 5.9.1 (29 Sep 2008)
%%abc-creator hum2abc beta
%%abcx-conversion-date 2020/08/10 18:54:57
%%gracespace 0 6 6
%%humdrum-veritas 793828285
%%humdrum-veritas-data 653182219
%%linebreak <none>
%%barnumbers 0
L: 1/8
M: 2/4
%%staves {1 2}
V: 1 clef=bass
V: 2 clef=bass
K: B
[V:1] z// D/<D/D// [I:setbarnb 1]| 
[V:2] z3/ | 
[V:1] D(3:2:2C/B, B,/>D/D3//D// | 
[V:2] G,,G,, G,,G,, | 
[V:1] (3CG,G, G,G,/F,/ | 
[V:2] G,,G,, G,,G,, | 
[V:1] D,2D,D, ||  
[V:2] z4 ||  
[V:1] [M:3/4]G,/G,/G, G,/G,/G, G,/>F,/F,3//G,// | 
[V:2] [M:3/4]z6 | 
[V:1] (3G,G,G,F,2F,/>G,/G,3//G,// ||  
[V:2] z6 ||  
[V:1] [M:2/4](3G,G,F,D,2 | 
[V:2] [M:2/4]z4 | 
[V:1] (3G,G,F,F,2 | 
[V:2] z4 | 
[V:1] F,F,z2 |]  
[V:2] z4 |]  


